F1 Grump/assets/track outlines/Yas Marina - White_1.svg

<svg width="4415" height="2012" viewBox="0 0 4415 2012" fill="none" xmlns="http://www.w3.org/2000/svg">
<g clip-path="url(#clip0_13_858)">
<path d="M241.588 2010.91C217.758 2012.75 193.788 2010.76 170.588 2005.01C93.2983 1985.83 33.3683 1928.22 10.2583 1850.88C-19.6117 1750.88 21.8183 1687.41 58.3783 1631.4C68.8283 1615.4 78.6983 1600.29 87.3183 1584.12C130.688 1502.81 196.518 1399.91 260.188 1300.38C277.068 1273.99 293.798 1247.82 309.908 1222.38C377.658 1115.38 484.538 996.94 587.908 882.38C644.498 819.66 697.908 760.38 742.808 705.56C852.588 571.25 958.678 460.87 1058.14 377.48C1112.35 332 1292.56 247.07 1351.01 224.85C1381.68 213.22 1430.86 208.93 1482.94 204.37C1517.48 201.37 1568.08 196.94 1586.94 190.52C1589.24 178.16 1589.34 151.79 1589.41 135.14C1589.63 82.06 1589.82 31.94 1622.8 9.39996C1632.02 3.06996 1651.51 -5.82004 1678.5 5.05996C2142.88 192 3900.33 934 4355.27 1133.29C4389.06 1148.1 4411.67 1183.05 4414.27 1224.49C4416.89 1266.21 4397.73 1304.75 4364.22 1325.02C4287.44 1371.47 4208.22 1375.8 4098.6 1381.86C4069.4 1383.46 4036.31 1385.27 4000.44 1388.04C3791.01 1404.19 3593.98 1407.22 3465.57 1406.9C3377.12 1406.71 3289.78 1378.46 3207.88 1349.55C3178.45 1339.16 3155.3 1329.13 3134.88 1320.3C3092.65 1302.03 3062.12 1288.82 3002.38 1284.06C2958.86 1280.66 2900.3 1306.83 2864.38 1332.67C2838.66 1351.17 2821.46 1383.53 2803.24 1417.81C2798.71 1426.35 2794.24 1434.81 2789.59 1443.05C2779.18 1461.61 2763.51 1493.3 2746.93 1526.87C2675.55 1671.27 2663.22 1690.24 2636.93 1695.92C2491.31 1727.39 2215.82 1771.51 2098.18 1790.36L2089.65 1791.73C2067.65 1795.22 2043.96 1788.33 2023.16 1772.24C1999.84 1754.24 1984.32 1728.09 1981.59 1702.42C1967.51 1569.13 1943.39 1248.04 1920.11 937.51C1903.11 711.29 1887.04 496.99 1877.11 387.24C1855.22 380.85 1808.22 376.86 1792.65 379.74C1774.92 388.29 1745.15 400.93 1707.9 416.74C1614.7 456.33 1461.4 521.41 1412.78 560.91C1406.51 601.57 1421.08 764.74 1430.85 874.42C1438.75 962.93 1446.21 1046.51 1446.97 1094.2C1447.66 1138.26 1433.09 1202.3 1428.59 1220.88C1410.1 1297.45 1396.72 1320.67 1368.92 1324.37C1330.05 1330.08 1120.35 1310.21 1079.29 1303.82C1036.05 1297.12 1033.95 1251.32 1028.35 1128.93C1026.73 1093.71 1024.27 1039.8 1019.91 1010.79L1014.18 1011.38C856.608 1027.84 767.318 1040.46 748.798 1048.91C691.048 1076.75 579.798 1226.31 549.468 1335.43C533.848 1391.58 528.388 1459.79 522.598 1532.01C511.328 1672.85 498.548 1832.45 399.668 1934.2C355.258 1979.87 299.258 2006.47 241.668 2010.92M1667.2 83.53C1665.62 98.78 1665.55 120.53 1665.5 135.38C1665.3 182.67 1665.16 220.02 1644.65 243.05C1622.02 268.47 1575.84 273.59 1489.31 281.13C1446.76 284.86 1398.51 289.06 1377.66 296.99C1316.47 320.22 1148.95 401.29 1106.66 436.76C1010.86 517.08 908.168 624 801.428 754.6C755.428 810.93 701.328 870.83 644.088 934.28C542.888 1046.41 438.248 1162.39 373.998 1263.85C357.838 1289.36 340.998 1315.61 324.098 1342.12C261.238 1440.37 196.248 1541.98 154.318 1620.58C144.078 1639.76 132.818 1657.05 121.908 1673.75C88.0483 1725.59 63.5983 1763.05 83.1483 1828.52C98.4083 1879.58 137.908 1917.59 188.828 1930.22C244.108 1943.96 301.158 1925.72 345.338 1880.22C424.828 1798.46 435.928 1659.89 446.668 1525.89C452.748 1449.83 458.498 1378 476.118 1314.66C507.888 1200.47 624.868 1023.32 716.118 979.35C743.698 966.06 822.378 953.97 1006.42 934.74C1020.56 933.28 1031.42 932.13 1037.51 931.43C1049.51 929.69 1061.51 933.69 1070.97 941.84C1094.87 962.37 1098.97 1005.93 1104.38 1125.21C1105.92 1158.65 1108.08 1205.8 1111.58 1230.44C1171.32 1237.59 1293.72 1247.44 1341.7 1248.36C1353.39 1214.93 1371.41 1135.93 1370.76 1095.53C1370.05 1050.69 1362.76 968.47 1354.95 881.42C1328.67 586.86 1328.63 534.79 1354.71 509.97C1401.62 465.34 1534.62 406.82 1678.45 345.73C1714.75 330.31 1746.12 316.99 1761.72 309.35C1791.93 294.59 1886.88 302.91 1923.06 323.47C1945.63 336.27 1950.5 354.21 1951.4 363.76C1961.24 468.38 1978.11 693.35 1996.01 931.55C2019.25 1241.48 2043.32 1561.97 2057.29 1694.1C2058.15 1702.18 2072.01 1715.29 2078.36 1715.59L2086.36 1714.26C2200.52 1695.99 2464.14 1653.78 2610.31 1622.91C2625.17 1601.02 2658.25 1534.06 2678.8 1492.5C2695.8 1458.03 2711.94 1425.44 2723.32 1405.14C2727.67 1397.39 2731.91 1389.44 2736.14 1381.43C2756.72 1342.72 2780.04 1298.86 2820.32 1269.9C2865.14 1237.68 2941.32 1202.04 3008.48 1207.27C3080.72 1213.02 3119.76 1229.91 3164.96 1249.47C3185.21 1258.24 3206.18 1267.31 3233.13 1276.82C3308.89 1303.58 3389.28 1329.71 3465.91 1329.87C3592.96 1330.19 3787.85 1327.2 3994.81 1311.23C4031.51 1308.4 4065.04 1306.56 4094.62 1304.94C4200.68 1299.11 4264.62 1295.61 4325.22 1258.94C4338.22 1251.09 4338.69 1235.73 4338.29 1229.49C4337.54 1217.57 4332.02 1207.06 4324.89 1203.92C3875.69 1007.15 2155.65 280.88 1667.2 83.53Z" fill="white"/>
</g>
<defs>
<clipPath id="clip0_13_858">
<rect width="4415" height="2012" fill="white"/>
</clipPath>
</defs>
</svg>

<svg xmlns="http://www.w3.org/2000/svg" viewBox="0 0 4414.54 2750.73"><defs><style>.cls-1{fill:#fff;}</style></defs><title>Yas Marina - White_1</title><g id="Layer_2" data-name="Layer 2"><g id="Layer_1-2" data-name="Layer 1"><path class="cls-1" d="M1020.26,2746.19H981.37v-147l-111.6-202.5H913.7l86.86,163.62,86.86-163.62h43.94l-111.1,202.5Z"/><path class="cls-1" d="M1124.29,2746.19l96-349.46h84.84l96,349.46h-38.38l-25.25-89.9H1187.92l-25.25,89.9Zm125.24-316.13-53,191.39h132.31l-53-191.39Z"/><path class="cls-1" d="M1549,2425.51q-75.75,0-75.75,57.07,0,31.82,17.42,43.68t70.7,23.73q53.28,11.88,75.5,30.81t22.22,62.36q0,107.57-111.61,107.57-36.87,0-92.41-8.58l-18.18-2.53,4-32.32q68.67,9.09,104.53,9.09,74.73,0,74.74-70.19,0-28.29-16.41-40.66t-61.36-21Q1483.34,2572,1458.6,2552t-24.74-66.91q0-93.93,112.61-93.93,36.85,0,88.38,7.58l17.17,2.52-3.54,32.83Q1578.28,2425.51,1549,2425.51Z"/><path class="cls-1" d="M1837.34,2746.19V2396.73h70.2l99,295.42,99-295.42h70.19v349.46h-38.88V2438.14h-7.07l-101.51,295.42H1984.8l-101.5-295.42h-7.07v308.05Z"/><path class="cls-1" d="M2230.73,2746.19l96-349.46h84.84l95.95,349.46H2469.1l-25.25-89.9H2294.36l-25.25,89.9ZM2356,2430.06l-53,191.39h132.31l-53-191.39Z"/><path class="cls-1" d="M2601.4,2612.36v133.83h-38.88V2396.73H2691.8q55.54,0,83.57,25.75t28,80.3q0,80.79-64.13,101.5l67.16,141.91h-42.92l-63.13-133.83Zm90.9-34.34q71.2,0,71.21-73.48t-71.71-73.47h-90.4V2578Z"/><path class="cls-1" d="M2873.6,2746.19V2396.73h38.88v349.46Z"/><path class="cls-1" d="M2997.82,2746.19V2396.73h72.72l133.82,315.12H3215V2396.73h38.38v349.46h-71.21L3046.3,2431.07h-9.6v315.12Z"/><path class="cls-1" d="M3308.39,2746.19l96-349.46h84.84l96,349.46h-38.38l-25.25-89.9H3372l-25.25,89.9Zm125.24-316.13-53,191.39h132.31l-53-191.39Z"/><path class="cls-1" d="M241.59,2010.91a223.79,223.79,0,0,1-71-5.9c-77.29-19.18-137.22-76.79-160.33-154.13-29.87-100,11.56-163.47,48.12-219.48,10.45-16,20.32-31.11,28.94-47.28,43.37-81.31,109.2-184.21,172.87-283.74,16.88-26.39,33.61-52.56,49.72-78,67.75-107,174.63-225.44,278-340,56.59-62.72,110-122,154.9-176.82,109.78-134.31,215.87-244.69,315.33-328.08,54.21-45.48,234.42-130.41,292.87-152.63,30.67-11.63,79.85-15.92,131.93-20.48,34.54-3,85.14-7.43,104-13.85,2.3-12.36,2.4-38.73,2.47-55.38.22-53.08.41-103.2,33.39-125.74,9.22-6.33,28.71-15.22,55.7-4.34C2142.88,192,3900.33,934,4355.27,1133.29c33.79,14.81,56.4,49.76,59,91.2,2.62,41.72-16.54,80.26-50.05,100.53-76.78,46.45-156,50.78-265.62,56.84-29.2,1.6-62.29,3.41-98.16,6.18-209.43,16.15-406.46,19.18-534.87,18.86-88.45-.19-175.79-28.44-257.69-57.35-29.43-10.39-52.58-20.42-73-29.25-42.23-18.27-72.76-31.48-132.5-36.24-43.52-3.4-102.08,22.77-138,48.61-25.72,18.5-42.92,50.86-61.14,85.14-4.53,8.54-9,17-13.65,25.24-10.41,18.56-26.08,50.25-42.66,83.82-71.38,144.4-83.71,163.37-110,169.05-145.62,31.47-421.11,75.59-538.75,94.44l-8.53,1.37c-22,3.49-45.69-3.4-66.49-19.49-23.32-18-38.84-44.15-41.57-69.82-14.08-133.29-38.2-454.38-61.48-764.91-17-226.22-33.07-440.52-43-550.27-21.89-6.39-68.89-10.38-84.46-7.5-17.73,8.55-47.5,21.19-84.75,37-93.2,39.59-246.5,104.67-295.12,144.17-6.27,40.66,8.3,203.83,18.07,313.51,7.9,88.51,15.36,172.09,16.12,219.78.69,44.06-13.88,108.1-18.38,126.68-18.49,76.57-31.87,99.79-59.67,103.49-38.87,5.71-248.57-14.16-289.63-20.55-43.24-6.7-45.34-52.5-50.94-174.89-1.62-35.22-4.08-89.13-8.44-118.14l-5.73.59c-157.57,16.46-246.86,29.08-265.38,37.53-57.75,27.84-169,177.4-199.33,286.52-15.62,56.15-21.08,124.36-26.87,196.58-11.27,140.84-24.05,300.44-122.93,402.19-44.41,45.67-100.41,72.27-158,76.72M1667.2,83.53c-1.58,15.25-1.65,37-1.7,51.85-.2,47.29-.34,84.64-20.85,107.67-22.63,25.42-68.81,30.54-155.34,38.08-42.55,3.73-90.8,7.93-111.65,15.86-61.19,23.23-228.71,104.3-271,139.77C1010.86,517.08,908.17,624,801.43,754.6c-46,56.33-100.1,116.23-157.34,179.68C542.89,1046.41,438.25,1162.39,374,1263.85c-16.16,25.51-33,51.76-49.9,78.27-62.86,98.25-127.85,199.86-169.78,278.46-10.24,19.18-21.5,36.47-32.41,53.17-33.86,51.84-58.31,89.3-38.76,154.77,15.26,51.06,54.76,89.07,105.68,101.7,55.28,13.74,112.33-4.5,156.51-50,79.49-81.76,90.59-220.33,101.33-354.33,6.08-76.06,11.83-147.89,29.45-211.23,31.77-114.19,148.75-291.34,240-335.31,27.58-13.29,106.26-25.38,290.3-44.61,14.14-1.46,25-2.61,31.09-3.31,12-1.74,24,2.26,33.46,10.41,23.9,20.53,28,64.09,33.41,183.37,1.54,33.44,3.7,80.59,7.2,105.23,59.74,7.15,182.14,17,230.12,17.92,11.69-33.43,29.71-112.43,29.06-152.83-.71-44.84-8-127.06-15.81-214.11-26.28-294.56-26.32-346.63-.24-371.45,46.91-44.63,179.91-103.15,323.74-164.24,36.3-15.42,67.67-28.74,83.27-36.38,30.21-14.76,125.16-6.44,161.34,14.12,22.57,12.8,27.44,30.74,28.34,40.29,9.84,104.62,26.71,329.59,44.61,567.79,23.24,309.93,47.31,630.42,61.28,762.55.86,8.08,14.72,21.19,21.07,21.49l8-1.33c114.16-18.27,377.78-60.48,523.95-91.35,14.86-21.89,47.94-88.85,68.49-130.41,17-34.47,33.14-67.06,44.52-87.36,4.35-7.75,8.59-15.7,12.82-23.71,20.58-38.71,43.9-82.57,84.18-111.53,44.82-32.22,121-67.86,188.16-62.63,72.24,5.75,111.28,22.64,156.48,42.2,20.25,8.77,41.22,17.84,68.17,27.35,75.76,26.76,156.15,52.89,232.78,53.05,127.05.32,321.94-2.67,528.9-18.64,36.7-2.83,70.23-4.67,99.81-6.29,106.06-5.83,170-9.33,230.6-46,13-7.85,13.47-23.21,13.07-29.45-.75-11.92-6.27-22.43-13.4-25.57C3875.69,1007.15,2155.65,280.88,1667.2,83.53m939.13,1544.65v0Z"/></g></g></svg>
